;FLAVOR:Marlin
;TIME:2517
;Filament used: 1.76819m
;Layer height: 0.15
;Generated with Cura_SteamEngine 3.6.0
M82 ;absolute extrusion mode
 ;Basic settings: Layer height: 0.15 Walls: 1 Fill: 90
 ;metric values
 M107
 G28
 G29
 G90        ;absolute positioning
 G92 E0; reset extruder distance
 G1 Z5 F300 ;move nozzle up 5mm for safe homing
 G1 X0 Y0 Z0 F5000; move nozzle to home
 M300 S600P200
 M300 S800 P200
 M190 S60 ;Uncomment to add your own bed temperature line
 M109 S200 ;Uncomment to add your own temperature line
 M82        ;set extruder to absolute mode
 M107       ;start with the fan off
 G1 Z15.0 F120 ;move the platform down 15mm
 G92 E0                  ;zero the extruded length
 G1 F200 E3              ;extrude 3mm of feed stock
 G92 E0                  ;zero the extruded length again
 G1 F120
 ;Put printing message on LCD screen
 M117 Printing...

G92 E0
G1 F1500 E-3
;LAYER_COUNT:147
;LAYER:0
M107
G0 F3600 X76.324 Y103.713 Z0.2
;TYPE:SKIRT
G1 F1500 E0
G1 F2400 X77.004 Y103.312 E0.02626
G1 X77.722 Y102.982 E0.05254
G1 X78.469 Y102.727 E0.07879
G1 X79.238 Y102.548 E0.10505
G1 X80.022 Y102.448 E0.13134
G1 X80.617 Y102.425 E0.15114
G1 X129.383 Y102.425 E1.77311
G1 X130.172 Y102.465 E1.79938
G1 X130.952 Y102.584 E1.82563
G1 X131.717 Y102.782 E1.85191
G1 X132.457 Y103.056 E1.87816
G1 X133.166 Y103.404 E1.90442
G1 X133.837 Y103.822 E1.93072
G1 X134.461 Y104.305 E1.95696
G1 X134.898 Y104.71 E1.97678
G1 X135.015 Y104.827 E1.98228
G1 X135.545 Y105.413 E2.00856
G1 X136.012 Y106.049 E2.03481
G1 X136.413 Y106.729 E2.06106
G1 X136.743 Y107.447 E2.08735
G1 X136.998 Y108.194 E2.1136
G1 X137.177 Y108.963 E2.13986
G1 X137.277 Y109.747 E2.16615
G1 X137.3 Y110.342 E2.18595
G1 X137.3 Y139.583 E3.15851
G1 X137.26 Y140.372 E3.18479
G1 X137.141 Y141.152 E3.21103
G1 X136.943 Y141.917 E3.23731
G1 X136.669 Y142.657 E3.26356
G1 X136.321 Y143.366 E3.28983
G1 X135.903 Y144.037 E3.31612
G1 X135.42 Y144.661 E3.34237
G1 X135.015 Y145.098 E3.36218
G1 X134.898 Y145.215 E3.36769
G1 X134.312 Y145.745 E3.39397
G1 X133.676 Y146.212 E3.42021
G1 X132.996 Y146.613 E3.44647
G1 X132.278 Y146.943 E3.47275
G1 X131.531 Y147.198 E3.499
G1 X130.762 Y147.377 E3.52526
G1 X129.978 Y147.477 E3.55155
G1 X129.379 Y147.5 E3.57149
G1 X127.613 Y147.499 E3.63022
G1 X126.824 Y147.459 E3.6565
G1 X126.043 Y147.339 E3.68278
G1 X125.279 Y147.14 E3.70904
G1 X124.539 Y146.866 E3.73528
G1 X123.83 Y146.518 E3.76155
G1 X123.16 Y146.1 E3.78782
G1 X122.535 Y145.616 E3.81411
G1 X122.102 Y145.214 E3.83376
G1 X121.985 Y145.097 E3.83927
G1 X121.455 Y144.511 E3.86555
G1 X120.988 Y143.875 E3.89179
G1 X120.587 Y143.195 E3.91805
G1 X120.257 Y142.477 E3.94433
G1 X120.002 Y141.73 E3.97058
G1 X119.823 Y140.961 E3.99684
G1 X119.723 Y140.177 E4.02313
G1 X119.7 Y139.582 E4.04293
G1 X119.7 Y120.025 E4.6934
G1 X90.3 Y120.025 E5.67125
G1 X90.3 Y139.583 E6.32175
G1 X90.26 Y140.372 E6.34803
G1 X90.141 Y141.152 E6.37427
G1 X89.943 Y141.917 E6.40055
G1 X89.669 Y142.657 E6.4268
G1 X89.321 Y143.366 E6.45307
G1 X88.903 Y144.037 E6.47936
G1 X88.42 Y144.661 E6.50561
G1 X88.015 Y145.098 E6.52542
G1 X87.898 Y145.215 E6.53093
G1 X87.312 Y145.745 E6.55721
G1 X86.676 Y146.212 E6.58345
G1 X85.996 Y146.613 E6.60971
G1 X85.278 Y146.943 E6.63599
G1 X84.531 Y147.198 E6.66224
G1 X83.762 Y147.377 E6.6885
G1 X82.978 Y147.477 E6.71479
G1 X82.379 Y147.5 E6.73473
G1 X80.613 Y147.499 E6.79346
G1 X79.824 Y147.459 E6.81974
G1 X79.043 Y147.339 E6.84602
G1 X78.279 Y147.14 E6.87228
G1 X77.539 Y146.866 E6.89853
G1 X76.83 Y146.518 E6.92479
G1 X76.16 Y146.1 E6.95106
G1 X75.535 Y145.616 E6.97735
G1 X75.102 Y145.214 E6.997
G1 X74.985 Y145.097 E7.00251
G1 X74.455 Y144.511 E7.02879
G1 X73.988 Y143.875 E7.05503
G1 X73.587 Y143.195 E7.08129
G1 X73.257 Y142.477 E7.10757
G1 X73.002 Y141.73 E7.13382
G1 X72.823 Y140.961 E7.16008
G1 X72.723 Y140.177 E7.18637
G1 X72.7 Y139.582 E7.20617
G1 X72.7 Y110.342 E8.1787
G1 X72.74 Y109.553 E8.20498
G1 X72.859 Y108.773 E8.23122
G1 X73.057 Y108.008 E8.2575
G1 X73.331 Y107.268 E8.28375
G1 X73.679 Y106.559 E8.31002
G1 X74.097 Y105.888 E8.33631
G1 X74.58 Y105.264 E8.36256
G1 X74.985 Y104.827 E8.38237
G1 X75.102 Y104.71 E8.38788
G1 X75.688 Y104.18 E8.41416
G1 X76.324 Y103.713 E8.4404
G0 F3600 X76.578 Y104.025
G1 F2400 X77.243 Y103.639 E8.46597
G1 X77.945 Y103.324 E8.49156
G1 X78.676 Y103.084 E8.51715
G1 X79.427 Y102.921 E8.54271
G1 X80.192 Y102.837 E8.56831
G1 X80.617 Y102.825 E8.58245
G1 X129.383 Y102.825 E10.20442
G1 X130.151 Y102.865 E10.23
G1 X130.911 Y102.984 E10.25558
G1 X131.654 Y103.182 E10.28116
G1 X132.373 Y103.456 E10.30675
G1 X133.059 Y103.803 E10.33232
G1 X133.706 Y104.219 E10.3579
G1 X134.306 Y104.7 E10.38348
G1 X134.616 Y104.992 E10.39764
G1 X134.733 Y105.109 E10.40315
G1 X135.247 Y105.681 E10.42872
G1 X135.7 Y106.303 E10.45432
G1 X136.086 Y106.968 E10.47989
G1 X136.401 Y107.67 E10.50548
G1 X136.641 Y108.401 E10.53107
G1 X136.804 Y109.152 E10.55663
G1 X136.888 Y109.917 E10.58223
G1 X136.9 Y110.342 E10.59637
G1 X136.9 Y139.583 E11.56893
G1 X136.86 Y140.351 E11.59451
G1 X136.741 Y141.111 E11.62009
G1 X136.543 Y141.854 E11.64567
G1 X136.269 Y142.573 E11.67126
G1 X135.922 Y143.259 E11.69683
G1 X135.506 Y143.906 E11.72241
G1 X135.025 Y144.506 E11.74799
G1 X134.733 Y144.816 E11.76215
G1 X134.616 Y144.933 E11.76766
G1 X134.044 Y145.447 E11.79323
G1 X133.422 Y145.9 E11.81883
G1 X132.757 Y146.286 E11.8444
G1 X132.055 Y146.601 E11.86999
G1 X131.324 Y146.841 E11.89558
G1 X130.573 Y147.004 E11.92114
G1 X129.808 Y147.088 E11.94674
G1 X129.379 Y147.1 E11.96101
G1 X127.613 Y147.099 E12.01975
G1 X126.845 Y147.059 E12.04533
G1 X126.085 Y146.939 E12.07092
G1 X125.342 Y146.741 E12.0965
G1 X124.623 Y146.466 E12.1221
G1 X123.937 Y146.119 E12.14767
G1 X123.29 Y145.702 E12.17327
G1 X122.691 Y145.221 E12.19882
G1 X122.384 Y144.932 E12.21284
G1 X122.267 Y144.815 E12.21835
G1 X121.753 Y144.243 E12.24392
G1 X121.3 Y143.621 E12.26952
G1 X120.914 Y142.956 E12.29509
G1 X120.599 Y142.254 E12.32068
G1 X120.359 Y141.523 E12.34627
G1 X120.196 Y140.772 E12.37183
G1 X120.112 Y140.007 E12.39743
G1 X120.1 Y139.582 E12.41157
G1 X120.1 Y119.625 E13.07534
G1 X89.9 Y119.625 E14.0798
G1 X89.9 Y139.583 E14.74361
G1 X89.86 Y140.351 E14.76918
G1 X89.741 Y141.111 E14.79477
G1 X89.543 Y141.854 E14.82034
G1 X89.269 Y142.573 E14.84594
G1 X88.922 Y143.259 E14.87151
G1 X88.506 Y143.906 E14.89709
G1 X88.025 Y144.506 E14.92267
G1 X87.733 Y144.816 E14.93683
G1 X87.616 Y144.933 E14.94233
G1 X87.044 Y145.447 E14.96791
G1 X86.422 Y145.9 E14.9935
G1 X85.757 Y146.286 E15.01908
G1 X85.055 Y146.601 E15.04467
G1 X84.324 Y146.841 E15.07026
G1 X83.573 Y147.004 E15.09582
G1 X82.808 Y147.088 E15.12142
G1 X82.379 Y147.1 E15.13569
G1 X80.613 Y147.099 E15.19443
G1 X79.845 Y147.059 E15.22001
G1 X79.085 Y146.939 E15.2456
G1 X78.342 Y146.741 E15.27117
G1 X77.623 Y146.466 E15.29678
G1 X76.937 Y146.119 E15.32234
G1 X76.29 Y145.702 E15.34795
G1 X75.691 Y145.221 E15.3735
G1 X75.384 Y144.932 E15.38752
G1 X75.267 Y144.815 E15.39302
G1 X74.753 Y144.243 E15.4186
G1 X74.3 Y143.621 E15.44419
G1 X73.914 Y142.956 E15.46977
G1 X73.599 Y142.254 E15.49536
G1 X73.359 Y141.523 E15.52095
G1 X73.196 Y140.772 E15.54651
G1 X73.112 Y140.007 E15.57211
G1 X73.1 Y139.582 E15.58625
G1 X73.1 Y110.342 E16.55877
G1 X73.14 Y109.574 E16.58435
G1 X73.259 Y108.814 E16.60994
G1 X73.457 Y108.071 E16.63551
G1 X73.731 Y107.352 E16.66111
G1 X74.078 Y106.666 E16.68667
G1 X74.494 Y106.019 E16.71226
G1 X74.975 Y105.419 E16.73784
G1 X75.267 Y105.109 E16.752
G1 X75.384 Y104.992 E16.7575
G1 X75.956 Y104.478 E16.78308
G1 X76.578 Y104.025 E16.80867
G0 F3600 X76.83 Y104.338
G1 F2400 X77.48 Y103.967 E16.83357
G1 X78.166 Y103.668 E16.85846
G1 X78.88 Y103.444 E16.88334
G1 X79.613 Y103.297 E16.90821
G1 X80.617 Y103.225 E16.94169
G1 X129.383 Y103.225 E18.56365
G1 X130.13 Y103.265 E18.58853
G1 X130.868 Y103.384 E18.6134
G1 X131.59 Y103.582 E18.6383
G1 X132.286 Y103.855 E18.66316
G1 X132.949 Y104.202 E18.68805
G1 X133.572 Y104.617 E18.71295
G1 X134.333 Y105.275 E18.74641
G1 X134.45 Y105.392 E18.75191
G1 X134.95 Y105.949 E18.77681
G1 X135.387 Y106.555 E18.80166
G1 X135.758 Y107.205 E18.82655
G1 X136.057 Y107.891 E18.85144
G1 X136.281 Y108.605 E18.87633
G1 X136.428 Y109.338 E18.90119
G1 X136.5 Y110.342 E18.93467
G1 X136.5 Y139.583 E19.90723
G1 X136.46 Y140.33 E19.93211
G1 X136.341 Y141.068 E19.95698
G1 X136.143 Y141.79 E19.98188
G1 X135.87 Y142.486 E20.00674
G1 X135.523 Y143.149 E20.03163
G1 X135.108 Y143.772 E20.05653
G1 X134.45 Y144.533 E20.08999
G1 X134.333 Y144.65 E20.09549
G1 X133.776 Y145.15 E20.12039
G1 X133.17 Y145.587 E20.14524
G1 X132.52 Y145.958 E20.17013
G1 X131.834 Y146.257 E20.19502
G1 X131.12 Y146.481 E20.21991
G1 X130.387 Y146.628 E20.24478
G1 X129.379 Y146.7 E20.27839
G1 X127.613 Y146.699 E20.33712
G1 X126.866 Y146.659 E20.36201
G1 X126.128 Y146.539 E20.38687
G1 X125.406 Y146.341 E20.41177
G1 X124.71 Y146.067 E20.43665
G1 X124.047 Y145.72 E20.46154
G1 X123.425 Y145.305 E20.48641
G1 X122.667 Y144.649 E20.51975
G1 X122.55 Y144.532 E20.52526
G1 X122.05 Y143.975 E20.55015
G1 X121.613 Y143.369 E20.575
G1 X121.242 Y142.719 E20.59989
G1 X120.943 Y142.033 E20.62478
G1 X120.719 Y141.319 E20.64967
G1 X120.572 Y140.586 E20.67454
G1 X120.5 Y139.582 E20.70802
G1 X120.5 Y119.225 E21.38509
G1 X89.5 Y119.225 E22.41616
G1 X89.5 Y139.583 E23.09327
G1 X89.46 Y140.33 E23.11815
G1 X89.341 Y141.068 E23.14301
G1 X89.143 Y141.79 E23.16791
G1 X88.87 Y142.486 E23.19278
G1 X88.523 Y143.149 E23.21767
G1 X88.108 Y143.772 E23.24256
G1 X87.45 Y144.533 E23.27602
G1 X87.333 Y144.65 E23.28153
G1 X86.776 Y145.15 E23.30642
G1 X86.17 Y145.587 E23.33127
G1 X85.52 Y145.958 E23.35617
G1 X84.834 Y146.257 E23.38105
G1 X84.12 Y146.481 E23.40594
G1 X83.387 Y146.628 E23.43081
G1 X82.379 Y146.7 E23.46442
G1 X80.613 Y146.699 E23.52316
G1 X79.866 Y146.659 E23.54804
G1 X79.128 Y146.539 E23.57291
G1 X78.406 Y146.341 E23.59781
G1 X77.71 Y146.067 E23.62269
G1 X77.047 Y145.72 E23.64757
G1 X76.425 Y145.305 E23.67244
G1 X75.667 Y144.649 E23.70579
G1 X75.55 Y144.532 E23.71129
G1 X75.05 Y143.975 E23.73618
G1 X74.613 Y143.369 E23.76103
G1 X74.242 Y142.719 E23.78593
G1 X73.943 Y142.033 E23.81082
G1 X73.719 Y141.319 E23.83571
G1 X73.572 Y140.586 E23.86057
G1 X73.5 Y139.582 E23.89405
G1 X73.5 Y110.342 E24.86658
G1 X73.54 Y109.595 E24.89146
G1 X73.659 Y108.857 E24.91632
G1 X73.857 Y108.135 E24.94122
G1 X74.13 Y107.439 E24.96609
G1 X74.477 Y106.776 E24.99098
G1 X74.892 Y106.153 E25.01587
G1 X75.55 Y105.392 E25.04933
G1 X75.667 Y105.275 E25.05484
G1 X76.224 Y104.775 E25.07973
G1 X76.83 Y104.338 E25.10458
G0 F3600 X77.082 Y104.651
G1 F2400 X77.716 Y104.297 E25.12873
G1 X78.385 Y104.014 E25.15289
G1 X79.081 Y103.806 E25.17705
G1 X79.796 Y103.676 E25.20122
G1 X80.617 Y103.625 E25.22858
G1 X129.383 Y103.625 E26.85055
G1 X130.108 Y103.665 E26.8747
G1 X130.825 Y103.784 E26.89887
G1 X131.524 Y103.982 E26.92304
G1 X132.197 Y104.255 E26.94719
G1 X132.836 Y104.6 E26.97134
G1 X133.433 Y105.014 E26.99551
G1 X134.05 Y105.558 E27.02287
G1 X134.167 Y105.675 E27.02837
G1 X134.651 Y106.216 E27.05251
G1 X135.074 Y106.807 E27.07669
G1 X135.428 Y107.441 E27.10084
G1 X135.711 Y108.11 E27.125
G1 X135.919 Y108.806 E27.14916
G1 X136.049 Y109.521 E27.17333
G1 X136.1 Y110.342 E27.20069
G1 X136.1 Y139.583 E28.17325
G1 X136.06 Y140.308 E28.1974
G1 X135.941 Y141.025 E28.22157
G1 X135.743 Y141.724 E28.24574
G1 X135.47 Y142.397 E28.26989
G1 X135.125 Y143.036 E28.29404
G1 X134.711 Y143.633 E28.31821
G1 X134.167 Y144.25 E28.34557
G1 X134.05 Y144.367 E28.35107
G1 X133.509 Y144.851 E28.37521
G1 X132.918 Y145.274 E28.39939
G1 X132.284 Y145.628 E28.42354
G1 X131.615 Y145.911 E28.4477
G1 X130.919 Y146.119 E28.47186
G1 X130.204 Y146.249 E28.49603
G1 X129.379 Y146.3 E28.52352
G1 X127.613 Y146.299 E28.58226
G1 X126.888 Y146.259 E28.60641
G1 X126.172 Y146.139 E28.63056
G1 X125.473 Y145.941 E28.65472
G1 X124.8 Y145.668 E28.67887
G1 X124.161 Y145.322 E28.70304
G1 X123.564 Y144.908 E28.72721
G1 X122.95 Y144.366 E28.75445
G1 X122.833 Y144.249 E28.75995
G1 X122.349 Y143.708 E28.78409
G1 X121.926 Y143.117 E28.80827
G1 X121.572 Y142.483 E28.83242
G1 X121.289 Y141.814 E28.85658
G1 X121.081 Y141.118 E28.88074
G1 X120.951 Y140.403 E28.90491
G1 X120.9 Y139.582 E28.93227
G1 X120.9 Y118.825 E29.62265
G1 X89.1 Y118.825 E30.68032
G1 X89.1 Y139.583 E31.37074
G1 X89.06 Y140.308 E31.39489
G1 X88.941 Y141.025 E31.41906
G1 X88.743 Y141.724 E31.44322
G1 X88.47 Y142.397 E31.46738
G1 X88.125 Y143.036 E31.49153
G1 X87.711 Y143.633 E31.5157
G1 X87.167 Y144.25 E31.54305
G1 X87.05 Y144.367 E31.54856
G1 X86.509 Y144.851 E31.5727
G1 X85.918 Y145.274 E31.59687
G1 X85.284 Y145.628 E31.62103
G1 X84.615 Y145.911 E31.64519
G1 X83.919 Y146.119 E31.66935
G1 X83.204 Y146.249 E31.69352
G1 X82.379 Y146.3 E31.72101
G1 X80.613 Y146.299 E31.77975
G1 X79.888 Y146.259 E31.8039
G1 X79.172 Y146.139 E31.82804
G1 X78.473 Y145.941 E31.85221
G1 X77.8 Y145.668 E31.87636
G1 X77.161 Y145.322 E31.90053
G1 X76.564 Y144.908 E31.92469
G1 X75.95 Y144.366 E31.95193
G1 X75.833 Y144.249 E31.95744
G1 X75.349 Y143.708 E31.98158
G1 X74.926 Y143.117 E32.00575
G1 X74.572 Y142.483 E32.02991
G1 X74.289 Y141.814 E32.05407
G1 X74.081 Y141.118 E32.07823
G1 X73.951 Y140.403 E32.1024
G1 X73.9 Y139.582 E32.12976
G1 X73.9 Y110.342 E33.10228
G1 X73.94 Y109.617 E33.12643
G1 X74.059 Y108.9 E33.15061
G1 X74.257 Y108.201 E33.17477
G1 X74.53 Y107.528 E33.19893
G1 X74.875 Y106.889 E33.22308
G1 X75.289 Y106.292 E33.24724
G1 X75.833 Y105.675 E33.2746
G1 X75.95 Y105.558 E33.2801
G1 X76.491 Y105.074 E33.30425
G1 X77.082 Y104.651 E33.32842
G0 F3600 X77.333 Y104.966
G1 F2400 X77.951 Y104.628 E33.35185
G1 X78.602 Y104.361 E33.37525
G1 X79.28 Y104.171 E33.39867
G1 X79.975 Y104.058 E33.42209
G1 X80.617 Y104.025 E33.44347
G1 X129.383 Y104.025 E35.06544
G1 X130.086 Y104.065 E35.08886
G1 X130.78 Y104.184 E35.11227
G1 X131.455 Y104.382 E35.13567
G1 X132.104 Y104.654 E35.15908
G1 X132.718 Y104.999 E35.1825
G1 X133.289 Y105.41 E35.2059
G1 X133.767 Y105.841 E35.22731
G1 X133.884 Y105.958 E35.23281
G1 X134.353 Y106.483 E35.25623
G1 X134.759 Y107.058 E35.27964
G1 X135.097 Y107.676 E35.30306
G1 X135.364 Y108.327 E35.32647
G1 X135.554 Y109.005 E35.34989
G1 X135.667 Y109.7 E35.37331
G1 X135.7 Y110.342 E35.39469
G1 X135.7 Y139.583 E36.36725
G1 X135.66 Y140.286 E36.39067
G1 X135.541 Y140.98 E36.41409
G1 X135.343 Y141.655 E36.43748
G1 X135.071 Y142.304 E36.46089
G1 X134.726 Y142.918 E36.48431
G1 X134.315 Y143.489 E36.50771
G1 X133.884 Y143.967 E36.52912
G1 X133.767 Y144.084 E36.53462
G1 X133.242 Y144.553 E36.55804
G1 X132.667 Y144.959 E36.58145
G1 X132.049 Y145.297 E36.60488
G1 X131.398 Y145.564 E36.62828
G1 X130.72 Y145.754 E36.6517
G1 X130.025 Y145.867 E36.67512
G1 X129.379 Y145.9 E36.69663
G1 X127.613 Y145.899 E36.75537
G1 X126.911 Y145.859 E36.77876
G1 X126.217 Y145.739 E36.80218
G1 X125.541 Y145.541 E36.82561
G1 X124.892 Y145.268 E36.84903
G1 X124.279 Y144.923 E36.87242
G1 X123.708 Y144.511 E36.89584
G1 X123.233 Y144.083 E36.91711
G1 X123.116 Y143.966 E36.92261
G1 X122.647 Y143.441 E36.94602
G1 X122.241 Y142.866 E36.96944
G1 X121.903 Y142.248 E36.99286
G1 X121.636 Y141.597 E37.01627
G1 X121.446 Y140.919 E37.03969
G1 X121.333 Y140.224 E37.06311
G1 X121.3 Y139.582 E37.08449
G1 X121.3 Y118.425 E37.78817
G1 X88.7 Y118.425 E38.87245
G1 X88.7 Y139.583 E39.57617
G1 X88.66 Y140.286 E39.59959
G1 X88.541 Y140.98 E39.62301
G1 X88.343 Y141.655 E39.64641
G1 X88.071 Y142.304 E39.66981
G1 X87.726 Y142.918 E39.69324
G1 X87.315 Y143.489 E39.71663
G1 X86.884 Y143.967 E39.73804
G1 X86.767 Y144.084 E39.74355
G1 X86.242 Y144.553 E39.76696
G1 X85.667 Y144.959 E39.79037
